assets/icons/utility/drag_and_drop.svg

<?xml version="1.0"?><svg xmlns="http://www.w3.org/2000/svg" width="52" height="52" viewBox="0 0 52 52"><path fill="#fff" d="m20 4c2.2 0 4 1.8 4 4s-1.8 4-4 4-4-1.8-4-4 1.8-4 4-4z m12 0c2.2 0 4 1.8 4 4s-1.8 4-4 4-4-1.8-4-4 1.8-4 4-4z m-12 12c2.2 0 4 1.8 4 4s-1.8 4-4 4-4-1.8-4-4 1.8-4 4-4z m12 0c2.2 0 4 1.8 4 4s-1.8 4-4 4-4-1.8-4-4 1.8-4 4-4z m-12 12c2.2 0 4 1.8 4 4s-1.8 4-4 4-4-1.8-4-4 1.8-4 4-4z m12 0c2.2 0 4 1.8 4 4s-1.8 4-4 4-4-1.8-4-4 1.8-4 4-4z m-12 12c2.2 0 4 1.8 4 4s-1.8 4-4 4-4-1.8-4-4 1.8-4 4-4z m12 0c2.2 0 4 1.8 4 4s-1.8 4-4 4-4-1.8-4-4 1.8-4 4-4z"></path></svg>

<svg xmlns="http://www.w3.org/2000/svg" x="0px" y="0px"
	 width="52px" height="52px" viewBox="0 0 52 52" enable-background="new 0 0 52 52" xml:space="preserve">
<g>
	<path fill="#FFFFFF" d="M20,4c2.2,0,4,1.8,4,4s-1.8,4-4,4s-4-1.8-4-4S17.8,4,20,4z M32,4c2.2,0,4,1.8,4,4
		s-1.8,4-4,4s-4-1.8-4-4S29.8,4,32,4z M20,16c2.2,0,4,1.8,4,4s-1.8,4-4,4s-4-1.8-4-4S17.8,16,20,16z M32,16c2.2,0,4,1.8,4,4
		s-1.8,4-4,4s-4-1.8-4-4S29.8,16,32,16z M20,28c2.2,0,4,1.8,4,4s-1.8,4-4,4s-4-1.8-4-4S17.8,28,20,28z M32,28c2.2,0,4,1.8,4,4
		s-1.8,4-4,4s-4-1.8-4-4S29.8,28,32,28z M20,40c2.2,0,4,1.8,4,4s-1.8,4-4,4s-4-1.8-4-4S17.8,40,20,40z M32,40c2.2,0,4,1.8,4,4
		s-1.8,4-4,4s-4-1.8-4-4S29.8,40,32,40z"/>
</g>
</svg>
